ion/bar-chart.svg

<svg viewBox="0 0 512 512" xmlns="http://www.w3.org/2000/svg"><g><path d="M480 496H48v0c-17.68 0-32-14.33-32-32V32v0c0-8.84 7.16-16 16-16 8.83 0 16 7.16 16 16v432h432v0c8.83 0 16 7.16 16 16 0 8.83-7.17 16-16 16Z"/><path d="M156 432h-40v0c-19.89 0-36-16.12-36-36V244v0c0-19.89 16.11-36 36-36h40v0c19.88 0 36 16.11 36 36v152 0c0 19.88-16.12 36-36 36Z"/><path d="M300 432h-40v0c-19.89 0-36-16.12-36-36V196v0c0-19.89 16.11-36 36-36h40v0c19.88 0 36 16.11 36 36v200 0c0 19.88-16.12 36-36 36Z"/><path d="M443.64 432h-40v0c-19.89 0-36-16.12-36-36V132v0c0-19.89 16.11-36 36-36h40v0c19.88 0 36 16.11 36 36v264 0c0 19.88-16.12 36-36 36Z"/></g></svg>

<svg xmlns="http://www.w3.org/2000/svg" width="512" height="512" viewBox="0 0 512 512"><path d="M480,496H48a32,32,0,0,1-32-32V32a16,16,0,0,1,32,0V464H480a16,16,0,0,1,0,32Z"/><path d="M156,432H116a36,36,0,0,1-36-36V244a36,36,0,0,1,36-36h40a36,36,0,0,1,36,36V396A36,36,0,0,1,156,432Z"/><path d="M300,432H260a36,36,0,0,1-36-36V196a36,36,0,0,1,36-36h40a36,36,0,0,1,36,36V396A36,36,0,0,1,300,432Z"/><path d="M443.64,432h-40a36,36,0,0,1-36-36V132a36,36,0,0,1,36-36h40a36,36,0,0,1,36,36V396A36,36,0,0,1,443.64,432Z"/></svg>
